svg/text_recognition.svg

<?xml version="1.0" encoding="UTF-8"?><!DOCTYPE svg PUBLIC "-//W3C//DTD SVG 1.1//EN" "http://www.w3.org/Graphics/SVG/1.1/DTD/svg11.dtd"><svg xmlns="http://www.w3.org/2000/svg" xmlns:xlink="http://www.w3.org/1999/xlink" version="1.1" id="mdi-text-recognition" width="24" height="24" viewBox="0 0 24 24"><path d="M2 4C2 2.9 2.9 2 4 2H8V4H4V8H2V4M22 20C22 21.11 21.11 22 20 22H16V20H20V16H22V20M4 22C2.9 22 2 21.11 2 20V16H4V20H8V22H4M20 2C21.11 2 22 2.9 22 4V8H20V4H16V2H20M9 7V9H11V17H13V9H15V7H9Z" /></svg>

<svg xmlns="http://www.w3.org/2000/svg" viewBox="0 0 24 24"><path d="M2 4c0-1.1.9-2 2-2h4v2H4v4H2zm20 16c0 1.11-.89 2-2 2h-4v-2h4v-4h2zM4 22a2 2 0 0 1-2-2v-4h2v4h4v2zM20 2a2 2 0 0 1 2 2v4h-2V4h-4V2zM9 7v2h2v8h2V9h2V7z"/></svg>
